X:1
T:Voi pur vedete
T:Voi pur vedete
T:Theodorico Sistino
T:Source : Cantiones trium vocum---Hamburgi---P.ab Ohr---1608. Editor : André Vierendeels (01/03/14).
C:Theodorico Sistino
%%score [ 1 2 3 ]
L:1/8
Q:1/4=80
M:4/4
K:C
V:1 treble nm="Soprano 1" snm="S 1"
V:2 treble nm="Soprano 2" snm="S 2"
V:3 bass nm="Bass" snm="B"
V:1
 e4 e2 e2 | f4 e2 e2 | d2 d2 e2 A2- | A2 dc B2 A2 | Bc d2 ^c4 | ^c2 e2 d2 d2 | e2 f2 e4 | %7
w: Voi pur ve-|de- te, voi|pur ve- de- te'O|_ lu- * mi mie-|i _ do- len-|ti, O lu- mi|miei do- len-|
 e2 ^c2 d4 | f4 e4- | e2 d2 ^c2 d2- | d2 ^c2 d2 AB |"^-natural" c2 BA G2 A2 | e6 c2 |1 B4 ^c4 :|2 %14
w: ti gl'af- fin'|e- gli|_ tor- men- *|* * ti, gl'af- *|fan' _ _ _ e|gli tor-|men- ti,|
 B4 ^c2 e2 |: g2 g2 f2 f2 | e4 e4 | z4 f4 | f8- | f4 e4 | d4 c4- | c2 BA B4 | c8 | g4 f4 | e4 d4 | %25
w: men- ti, che'l|mio bel sol mi|do- na,|ahi|du-|* ra|sor- *||te,|ahi du-||
 c4 B4 | A6 B2 | c4 B4 | z2 c2 e2 e2 | f2 f2 e4 | d2 f2 e2 d2 | c2 B2 A3 B | c2 BA B4 | %33
w: * ra|sor- *|* te,|poi che vin-|to mi me-|na, poi che vin-|to mi me- *|* * * n'a-|
 A2 f3 e dc | B2 g3 f ed | c4 e4 | f4 f4 | e8 | d4 f4 | e4 c4 | B8- |1 B4 ^c2 e2 :|2 B4 ^c4- || %43
w: n'a cru- * * *|da mor- * * *|* te'a|cru- da|mor-|te,- a|cru- da|mor-|* te, chel|(mor)- te.|
 c8 |] %44
w: _|
V:2
 c4 B2 ^c2 | d4 ^c2 c2 | B2 A2 e4 |"^-natural" ^f2 f2 g2 d2 | g2 f2 e4 |"^-natural" e2 c2 G2 G2 | %6
w: Voi pur ve-|de- te, voi|pur ve- de-|te O lu- mi|mieie do- len-|ti, O lu- mi|
 e2 d2 ^c4 | ^c2 e2 A2 B2 |"^-natural" d4 c4- | c2 d2 e2 f2 | e4 f2 d2 | e2 d2 e2 dc | %12
w: miei do- len-|ti, gl'af- fan'- _|e- gli|_ tor- men- *|* ti, gli'af|fan' e- gli tor- *|
 B2 A2 ^G2 A2 |1 ^G4 A4 :|2"^-natural" ^G4 A2 c2 |: B2 c2 A3 B | ^c4 c4 |"^-natural" f2 ed c2 B2 | %18
w: men- * * *|* ti,|(men)- ti, che'l|mio bel sol mi|do- na,|ahi _ _ _ _|
 A4 G4 | FG AB c4 | B4 c4 | d8 | e8 | e4 d4 | c4 G4 | A4 E4 | z4 A4- | A4 ^G4 | z2 c2 c2 c2- | %29
w: _ _|du- * * * *|* ra|sor-|te,|ahi du-|ra sor-|* te,|sor-|* te,|poi che vin-|
 cA d4 ^c2 | d2 AB c2 G2 | A2 E2 z2 A2- | A2 ^G^F G4 | A8 | B8 | c4 z2 e2 | e4 d4- | d2 cB ^c4 | %38
w: * to mi me-|n'a cru- * * da|mor- te, mor-|* * * te,-|a|cru-|da, a|cru- da|_ _ _ _|
 d4 A2 B2 | c4 A4- |"^#" A2 GF ^G4- |1 G4 A2 c2 :|2 ^G4 A4- || A8 |] %44
w: mor- te, a|cru- da|_ _ _ mor-|* te, che'l|(mor)- te.|_|
V:3
 A,4 ^G,2 A,2 | D,E, F,G, A,2 A,2 | B,2 D2 ^C4 |"^-natural" D2 D,2 G,2 F,2 | E,2 D,2 A,4 | %5
w: Voi pur ve-|de- * * * te, voi|pur ve- de-|te O lu- mi|miei do- len-|
 A,2 A,2 B,2 B,2 | ^C2 D2 A,4 | A,2 A,2 ^F,2 G,2 |"^-natural" D,E, F,G, A,B, C2- | C2 B,2 A,4- | %10
w: ti, O lu- mi|miei do- len-|ti, gl'af- fan' e|gli _ _ _ _ _ _|_ tor- men-|
 A,4 D,2 D2 | A,2 B,2 C2 B,A, | ^G,2 A,2 E,4- |1 E,4 A,,4 :|2 E,4 A,,2 A,2 |: G,2 E,2 F,2 D,2 | %16
w: * ti, gl'af-|fan' e gli tor- *|men- * *|* ti,|(men)- ti, che'l|mio bel sol mi|
 A,4 A,4 | F,8 | F,4 E,4 | D,4 C,4 | G,8- | G,8 | C,8 | C8 | C4 B,4 | A,4 G,4 | F,8 | E,8 | %28
w: do- na,|ahi|du- *|* ra|sor-||te,|ahi|du- *||sor-|te,|
 z2 A,2 A,2 A,2 | F,2 D,2 A,4 | D,2 D2 C2 B,2 | A,2 ^G,2 A,4 | E,8 | F,8 | G,8 | A,8- | A,8- | %37
w: poi che vin-|to mi me-|na, poi che vin-|to mi me-|n'a|cru-|da|mor-||
 A,8 | D,4 D,4 | C,6 D,2 | E,8- |1 E,4 A,,2 A,2 :|2 E,4 A,,4- || A,,8 |] %44
w: |te, a|cru- da|mor-|* te, che'l|(mor)- te.|_|

